public/icons/send.svg

<svg width="26" height="26" viewBox="0 0 26 26" fill="none" xmlns="http://www.w3.org/2000/svg">
<path d="M24.7843 1.22287C24.1593 0.584123 23.2343 0.347873 22.3718 0.597873L2.25928 6.40912C1.34928 6.66162 0.704275 7.38287 0.530525 8.29787C0.353025 9.23037 0.973025 10.4154 1.78303 10.9104L8.07178 14.7504C8.71677 15.1454 9.54928 15.0466 10.083 14.5116L17.2843 7.31037C17.6468 6.93412 18.2468 6.93412 18.6093 7.31037C18.9718 7.67162 18.9718 8.26037 18.6093 8.63537L11.3955 15.8366C10.8605 16.3716 10.7605 17.2016 11.1543 17.8479L14.9968 24.1604C15.4468 24.9091 16.2218 25.3354 17.0718 25.3354C17.1718 25.3354 17.2843 25.3354 17.3843 25.3216C18.3593 25.1979 19.1343 24.5341 19.4218 23.5966L25.3843 3.63537C25.6468 2.78537 25.4093 1.86037 24.7843 1.22287Z" fill="white"/>
<path opacity="0.4" d="M9.81448 21.9277C10.1795 22.294 10.1795 22.8877 9.81448 23.254L8.10698 24.9602C7.92448 25.144 7.68448 25.2352 7.44448 25.2352C7.20448 25.2352 6.96448 25.144 6.78198 24.9602C6.41573 24.594 6.41573 24.0015 6.78198 23.6352L8.48823 21.9277C8.85448 21.5627 9.44823 21.5627 9.81448 21.9277ZM8.83486 17.1927C9.19986 17.559 9.19986 18.1527 8.83486 18.519L7.12736 20.2252C6.94486 20.409 6.70486 20.5002 6.46486 20.5002C6.22486 20.5002 5.98486 20.409 5.80236 20.2252C5.43611 19.859 5.43611 19.2665 5.80236 18.9002L7.50861 17.1927C7.87486 16.8277 8.46861 16.8277 8.83486 17.1927ZM4.13336 15.7022C4.49836 16.0685 4.49836 16.6622 4.13336 17.0285L2.42586 18.7347C2.24336 18.9185 2.00336 19.0097 1.76336 19.0097C1.52336 19.0097 1.28336 18.9185 1.10086 18.7347C0.734609 18.3685 0.734609 17.776 1.10086 17.4097L2.80711 15.7022C3.17336 15.3372 3.76711 15.3372 4.13336 15.7022Z" fill="white"/>
</svg>

<svg xmlns="http://www.w3.org/2000/svg" width="26" height="26" fill="none"><path fill="#fff" d="M24.784 1.223a2.42 2.42 0 0 0-2.412-.625L2.259 6.409A2.39 2.39 0 0 0 .531 8.298c-.178.932.442 2.117 1.252 2.612l6.289 3.84a1.635 1.635 0 0 0 2.011-.238l7.201-7.202a.92.92 0 0 1 1.325 0 .943.943 0 0 1 0 1.325l-7.214 7.202a1.64 1.64 0 0 0-.24 2.01l3.842 6.313a2.39 2.39 0 0 0 2.075 1.175c.1 0 .212 0 .312-.013a2.43 2.43 0 0 0 2.038-1.725l5.962-19.962a2.43 2.43 0 0 0-.6-2.412"/><path fill="#fff" d="M9.814 21.928a.94.94 0 0 1 0 1.326L8.107 24.96a.93.93 0 0 1-.663.275.936.936 0 0 1-.663-1.6l1.707-1.707a.94.94 0 0 1 1.326 0m-.98-4.735a.94.94 0 0 1 0 1.326l-1.707 1.706a.93.93 0 0 1-.662.275.936.936 0 0 1-.662-1.6l1.706-1.707a.94.94 0 0 1 1.326 0m-4.7-1.49a.94.94 0 0 1 0 1.326l-1.708 1.706a.93.93 0 0 1-.663.275.936.936 0 0 1-.663-1.6l1.707-1.708a.94.94 0 0 1 1.326 0" opacity=".4"/></svg>
